assets/img/svg/search.svg

<?xml version="1.0" encoding="UTF-8"?>
<svg width="24px" height="24px" viewBox="0 0 24 24" version="1.1" xmlns="http://www.w3.org/2000/svg" xmlns:xlink="http://www.w3.org/1999/xlink">
    <!-- Generator: Sketch 42 (36781) - http://www.bohemiancoding.com/sketch -->
    <title>Combined Shape</title>
    <desc>Created with Sketch.</desc>
    <defs></defs>
    <g id="Symbols" stroke="none" stroke-width="1" fill="none" fill-rule="evenodd">
        <g id="ico/24-search-white" fill="#FEFEFE">
            <path d="M16.777914,15.2836455 L24,22.2623535 L22.7565824,23.5489459 L15.5355656,16.571307 L15.3516723,16.7204384 C14.3579005,17.5280998 13.235831,18.1144695 12.0154001,18.4640463 C8.78711162,19.3882334 5.28405246,18.5142913 2.8720575,16.1832446 C1.06359586,14.4353605 0.0441644834,12.0877436 0.00139861547,9.5733562 C-0.0413672525,7.05843423 0.897878123,4.6782116 2.6453984,2.86992658 C3.79366196,1.68168609 5.23594085,0.814692797 6.81613968,0.361953392 C10.0438936,-0.561699138 13.5480219,0.312242926 15.9600168,2.6427551 C17.7684785,4.39063922 18.7873753,6.73772155 18.8301411,9.25210899 C18.8675613,11.3837793 18.2073632,13.4042692 16.9217143,15.0949596 L16.777914,15.2836455 Z M14.8999579,14.7122424 C16.3160427,13.2476545 17.0767405,11.3191022 17.0414587,9.28311122 C17.0067114,7.24551663 16.1807956,5.34422494 14.7160646,3.929882 C12.7627336,2.04088429 9.92414913,1.3331783 7.30848173,2.08257694 C6.03031685,2.4481894 4.86280866,3.15055018 3.93211646,4.11268823 C2.51656623,5.57727615 1.75586835,7.50529391 1.79008104,9.54288849 C1.82536288,11.5799486 2.65127871,13.4812403 4.11600969,14.8966522 C5.55508114,16.2869417 7.47313032,17.0374094 9.42913421,17.0374094 C10.1288907,17.0374094 10.833993,16.9406611 11.523058,16.7434228 C12.8012229,16.3778103 13.9692657,15.6754495 14.8999579,14.7122424 Z" id="Combined-Shape"></path>
        </g>
    </g>
</svg>

<svg width="24" height="24" viewBox="0 0 24 24" xmlns="http://www.w3.org/2000/svg"><title>Combined Shape</title><path d="M16.778 15.284L24 22.262l-1.243 1.287-7.221-6.978-.184.15a9.34 9.34 0 0 1-3.337 1.743 9.45 9.45 0 0 1-9.143-2.28 9.354 9.354 0 0 1-2.87-6.61A9.354 9.354 0 0 1 2.644 2.87 9.416 9.416 0 0 1 6.816.362a9.453 9.453 0 0 1 9.144 2.28 9.352 9.352 0 0 1 2.87 6.61 9.292 9.292 0 0 1-1.908 5.843l-.144.189zm-1.878-.572a7.572 7.572 0 0 0 2.141-5.429 7.572 7.572 0 0 0-2.325-5.353 7.652 7.652 0 0 0-7.408-1.847 7.625 7.625 0 0 0-3.376 2.03 7.579 7.579 0 0 0-2.142 5.43 7.579 7.579 0 0 0 2.326 5.354 7.654 7.654 0 0 0 7.407 1.846 7.619 7.619 0 0 0 3.377-2.03z" fill="#FEFEFE" fill-rule="evenodd"/></svg>
